X:1
T:W Zlobie Lezy
T:W Zlobie Lezy
T:Polish Carol
T:Public Domain Courtesy of the Cyber Hymnal™
C:Polish Carol
Z:Public Domain
Z:Courtesy of the Cyber Hymnal™
%%score ( 1 2 ) ( 3 4 )
L:1/8
Q:1/4=105
M:3/4
K:G
V:1 treble 
V:2 treble 
V:3 bass 
V:4 bass 
V:1
 [B,D][CD] | [DG]2 [DG]2 [DF][EG] | [FA]2 [FA]2 [GB][Gc] | [DGd]2 [EGc]2 [FB][FA] | [DG]4 DD | %5
 [DG]2 [DG]2 [DF][EG] | [FA]2 [FA]2 [GB][Gc] | [DGd]2 [EGc]2 [DFB][CFA] | [DG]4 GF | %9
 [CE]2 [CE]2 AG | [DF]2 [DF]2 BA | [EG]2 [EG]2 cB | [FA]2 [FA]2 [EB][Ec] | %13
 [DGd]2 [EGc]2 [DFB][CFA] | [DG]4 |] %15
V:2
 x2 | x6 | x6 | x6 | x6 | x6 | x6 | x6 | x4 D2 | x4 C2 | x4 D2 | x4 E2 | x6 | x6 | x4 |] %15
V:3
 [G,,G,][A,,F,] | ([B,,G,][A,,A,]) [G,B,]2 D,2 | D2 D2 [G,D][E,C] | B,,2 C,2 DC | (C2 B,2) x2 | %5
 [G,B,]2 [G,B,]2 D,2 | D2 D2 [G,D][E,C] | B,,2 C,2 D,2 | [G,B,]4 [B,,G,]2 | %9
 [C,G,]2 [C,G,]2 [A,,A,]2 | [D,A,]2 [D,A,]2 [B,,B,]2 | [E,B,]2 [E,B,]2 [A,,A,]2 | %12
 [D,A,]2 [D,A,]2 [E,G,][C,G,] | B,,2 C,2 x2 | [G,,B,]4 |] %15
V:4
 x2 | x4 D,2 | D2 D2 x2 | B,,2 C,2 D,2 | G,4 D,D, | x4 D,2 | x6 | B,,2 C,2 D,2 | x6 | x6 | x6 | %11
 x6 | x6 | B,,2 C,2 D,2 | x4 |] %15

